src/svg/zoomin.svg

<svg height="35" viewBox="0 0 35 35" width="35" xmlns="http://www.w3.org/2000/svg"><g fill="none" fill-rule="evenodd"><path d="m20.5 15c0 3.038-2.462 5.5-5.5 5.5s-5.5-2.462-5.5-5.5 2.462-5.5 5.5-5.5 5.5 2.462 5.5 5.5" fill="#fff"/><path d="m20.5 15c0 3.038-2.462 5.5-5.5 5.5s-5.5-2.462-5.5-5.5 2.462-5.5 5.5-5.5 5.5 2.462 5.5 5.5z" stroke="#000"/><g fill="#000"><path d="m18 14h-2v-2h-2v2h-2v1.98h2v2.02h2v-2.02h2z"/><path d="m23.5859 25 1.414-1.414-5.449-5.449-1.414 1.414z"/></g></g></svg>

<?xml version="1.0" encoding="UTF-8" standalone="no"?>
<svg width="35px" height="35px" viewBox="0 0 35 35" version="1.1" xmlns="http://www.w3.org/2000/svg" xmlns:xlink="http://www.w3.org/1999/xlink">
    <defs></defs>
    <g id="Page-1" stroke="none" stroke-width="1" fill="none" fill-rule="evenodd">
        <g id="zoomin">
            <g id="bg-copy" fill="#FFFFFF" opacity="0.00999999978">
                <rect id="bg" x="0" y="0" width="35" height="35"></rect>
            </g>
            <path d="M20.5,15 C20.5,18.038 18.038,20.5 15,20.5 C11.962,20.5 9.5,18.038 9.5,15 C9.5,11.962 11.962,9.5 15,9.5 C18.038,9.5 20.5,11.962 20.5,15" id="glass" fill="#FFFFFF"></path>
            <path d="M20.5,15 C20.5,18.038 18.038,20.5 15,20.5 C11.962,20.5 9.5,18.038 9.5,15 C9.5,11.962 11.962,9.5 15,9.5 C18.038,9.5 20.5,11.962 20.5,15 L20.5,15 Z" id="glass-border" stroke="#000000"></path>
            <path d="M18,14 L16,14 L16,12 L14,12 L14,14 L12,14 L12,15.98 L14,15.98 L14,18 L16,18 L16,15.98 L18,15.98 L18,14 Z" id="plus" fill="#000000"></path>
            <path d="M23.5859,25 L24.9999,23.586 L19.5509,18.137 L18.1369,19.551 L23.5859,25 Z" id="stem" fill="#000000"></path>
        </g>
    </g>
</svg>
